svg/u1fac4.svg

<svg viewBox="0 0 128 128" xmlns="http://www.w3.org/2000/svg" xmlns:xlink="http://www.w3.org/1999/xlink">
  <path id="head_23_" d="M90.3,33.53c2.46-10.18-3.27-21.55-11.55-25.01c-6.1-2.53-13.15-2.03-19.26,0.2 c-9.44,3.28-13.51,11.67-12.77,20.79c0.3,4.7,1.58,7.34,3.32,10.98c0.81,2.45-3.08,5.51-2.99,8.2c0.04,2,4.32,2.3,4.71,2.58 c0.43,0.27,0.82,1.13,1.08,1.79c1.88,4.62,3.51,7.63,11.43,6.61c2.68-0.43,5.24-1.64,5.77-0.85c0.43,0.65,0.74,3.29,0.82,3.95 c0.11,0.86-2.72,5.59-2.72,5.59l19.88-2.28l1.53,0.31l-0.24-3.61c0,0-5.45-9.2-1.92-20.56C87.86,40.71,89.98,34.7,90.3,33.53z" fill="#FFCA28"/>
  <path id="eye_23_" d="M59.41,42.81c1.77,0.04-0.76,2.27-3.16,2.4c-1.74,0.1-3.79-0.71-3.06-3.34 c0.31-1.12,1.03,0.87,2.55,1.1C57.27,43.19,59.41,42.81,59.41,42.81z" fill="#404040"/>
  <path id="eyebrow_23_" d="M53.59,37.51c-2.08,0.43-2.56-0.58-1.95-1.71c0.45-0.83,2.05-1.31,4.43-0.84 c2.45,0.48,3.39,1.45,4.04,2.19c0.65,0.75,0.63,1.53,0.12,1.63C59.53,38.93,57.11,36.79,53.59,37.51z" fill="#6D4C41"/>
  <g id="hair_1_">
    <path id="hair" d="M92.95,26.45c0,0-0.01,0.01-0.03,0.03c2.54-3.34,2.05-9.4-0.85-12.4 c-4.1-4.25-9.07-4.02-9.86-4.03c-3.34-6.17-11.81-7.3-18.77-4.84c-2.84,0.93-5.49,3.01-7.63,4.91c-0.56,0.43-1.11,0.8-1.7,1.07 c-0.05,0.02-0.11,0.05-0.16,0.07c-0.08,0.03-0.15,0.06-0.23,0.08c-3.7,1.05-5.62-0.86-5.49-3.91c0,0-7.97,3.03-3.26,10.52 c-2.6,1.62-3.97,4.46-4.06,7.3c-0.13,3.88,2.65,7.31,6.52,8.41c-0.33-0.97-1.29-6.07,7.6-6.53c3.08-0.15,6.2-1.77,8.44-3.67 c0.19-0.03,0.31-0.05,0.31-0.05c3.58,1.3-0.1,9.01,4.26,13.07c0.86,0.8,1.42,0.38,1.42,0.38l1.17-2.39 c0.91-1.66,1.75-3.09,3.19-2.99c4.27,0.31,4.58,7.81-0.09,10.14c-0.46,0.23,2.89,8.61,13.06,7.15c5.26-0.75,6.49-5.38,6.49-5.38 c-0.38,0.15-1.22,0.3-2.03,0.02c-0.1-0.04-0.19-0.1-0.28-0.17c-0.25-0.2-0.43-0.46-0.52-0.63c-0.59-1.09,0.18-2.49,1.66-4.29 C96.25,33.41,93.87,27.85,92.95,26.45z" fill="#543930"/>
  </g>
  <g id="hairHighlights_23_">
    <radialGradient id="SVGID_1_" cx="80.1208" cy="37.2464" gradientTransform="matrix(0.9381 0.3463 -0.4988 1.351 23.5349 -40.8215)" gradientUnits="userSpaceOnUse" r="14.1914">
      <stop offset="0.45" stop-color="#6D4C41" stop-opacity="0"/>
      <stop offset="1" stop-color="#6D4C41"/>
    </radialGradient>
    <path d="M92.95,26.45c0,0-0.01,0.01-0.03,0.03c-2.24,3.37-6.11,4.25-7.09,4.45 c0,0-1.13,0.1-1.72,0.28c-4.28,0.61-5.82,7.06,0.1,11.9c4.13,3.37,9.08,0.27,9.08,0.27s-0.69,0.32-1.81,0.1 c-0.72-0.14-1.1-1.01-1.11-1.05c-0.4-0.95,0.32-2.42,1.75-4.11C96.25,33.41,93.87,27.85,92.95,26.45z" fill="url(#SVGID_1_)"/>
    <radialGradient id="SVGID_2_" cx="-2433.5916" cy="-209.6837" gradientTransform="matrix(0.9632 -0.2642 0.3327 1.1275 2494.7117 -381.3732)" gradientUnits="userSpaceOnUse" r="14.7647">
      <stop offset="0.45" stop-color="#6D4C41" stop-opacity="0"/>
      <stop offset="1" stop-color="#6D4C41"/>
    </radialGradient>
    <path d="M92.7,14.83c-2.99-3.69-6.89-4.76-10.49-4.78c0.56,1.29,0.39,5.88-2.48,9.07 c1.75,1.69,3.95,3.66,4.97,5.83c0.89,1.89,1.8,3.99,1.13,5.98c1.28-0.26,7.46-1.66,8.56-8.22C94.78,20.36,94.31,16.81,92.7,14.83z" fill="url(#SVGID_2_)"/>
    <radialGradient id="SVGID_3_" cx="-2448.002" cy="-213.1591" gradientTransform="matrix(0.9565 -0.2919 0.2194 0.7189 2454.2751 -537.6951)" gradientUnits="userSpaceOnUse" r="27.42">
      <stop offset="0.45" stop-color="#6D4C41" stop-opacity="0"/>
      <stop offset="1" stop-color="#6D4C41"/>
    </radialGradient>
    <path d="M82.21,14c0.39-1.7,0.35-3.05-0.08-4.18c0,0-0.57-0.99-1.53-1.99 c-0.85-0.88-2.02-1.74-3.13-2.33c-4.49-2.41-11.54-1.57-15.46,0.29c-3.16,1.5-4.09,2.71-6.2,4.33c-1.53,1.18-3.01,1.94-5.44,1.26 c-2.32-0.65-2.14-3.95-2.14-3.95s-7.97,3.03-3.26,10.52c-2.6,1.62-3.97,4.46-4.06,7.3c-0.13,3.88,2.65,7.31,6.52,8.41 c0,0-1.74-5.74,6.54-6.49c2.74-0.25,4.5-0.46,6.88-1.84c2.11-1.22,3.24-3.09,5.77-3.31c2.72-0.23,6.53,0.37,9.25-0.45 C81.36,19.89,82.19,14.08,82.21,14z" fill="url(#SVGID_3_)"/>
    <radialGradient id="SVGID_4_" cx="-2432.1213" cy="-194.4167" gradientTransform="matrix(0.9943 0.1064 -0.0684 0.6393 2489.4797 423.0317)" gradientUnits="userSpaceOnUse" r="15.7121">
      <stop offset="0.45" stop-color="#6D4C41" stop-opacity="0"/>
      <stop offset="1" stop-color="#6D4C41"/>
    </radialGradient>
    <path d="M84.2,43.11c-2.09-1.66-4.06-5.06-7.14-6.34c-0.26,1.92-1.34,3.85-3.33,4.85 c-0.46,0.23,2.89,8.61,13.06,7.15c5.26-0.75,6.49-5.38,6.49-5.38S88.4,46.45,84.2,43.11z" fill="url(#SVGID_4_)"/>
  </g>
  <path id="mouth_23_" d="M52.88,53.2c0.39,0,0.78-0.03,1.16-0.1c0.92-0.13,1.77-0.42,2.42-0.9 c1.44-1.05,2.66-0.11,1.5,1.24c-0.8,0.93-1.8,1.56-2.9,1.92c-0.37,0.12-0.73,0.22-1.11,0.28L52.88,53.2z" fill="#795548"/>
  <g>
    <radialGradient id="SVGID_5_" cx="48.9355" cy="97.5801" gradientUnits="userSpaceOnUse" r="45.2448">
      <stop offset="0" stop-color="#F78C1F"/>
      <stop offset="0.482" stop-color="#F47F12"/>
      <stop offset="1" stop-color="#EF6C00"/>
    </radialGradient>
    <path d="M36.16,124h57.51c0,0-2.29-7.91-1.67-14.68c0.95-10.22,4.33-13.44,4.33-29.56 c0-11.58-6.34-21.93-14.61-21.59C71.21,58.61,67.67,63.7,59.9,68.5c-10.51,6.5-11.6,11.33-10.77,16.89 c0.26,1.78-0.75,2.25-2.08,3.09c-9.18,5.88-16.01,11.97-15.34,24.53C32.07,119.83,36.16,124,36.16,124z" fill="url(#SVGID_5_)"/>
  </g>
  <linearGradient id="arm_2_" gradientUnits="userSpaceOnUse" x1="62.5035" x2="62.5035" y1="80.9835" y2="124.6199">
    <stop offset="0" stop-color="#FFB300"/>
    <stop offset="0.5056" stop-color="#FFCA28"/>
  </linearGradient>
  <path id="arm_1_" d="M88.24,70.96c-2.65-5.96-12.42-2.8-13.47,4.75c-0.88,6.33,1.97,28.11,1.97,28.11 s-7.27,3.99-15.61,5c-1.99,0.24-5.81,0.43-6.4,0.14c-1.06-0.52-1.45-1.65-1.95-2.31c-0.62-0.81-1.26-1.63-2.08-2.26 c-0.62-0.47-1.34-0.82-2.04-1.16c-1.17-0.56-2.35-1.12-3.52-1.69c-0.29-0.14-0.63-0.28-0.92-0.16c-0.15,0.07-0.27,0.2-0.36,0.34 c-0.38,0.66-0.04,1.53,0.51,2.06c0.55,0.53,1.27,0.84,1.89,1.28s1.17,1.13,1.1,1.89c-1.72,0.26-4.26,0.3-5.92,0.09 c-1.61-0.21-2.26-0.45-3.45-0.69c-0.61-0.13-1.78-0.51-2.14,0.37c-0.29,0.69,0.08,1.14,0.46,1.49c0.03,0.03,0.06,0.05,0.09,0.08 c-0.16-0.11-0.38-0.25-0.64-0.4c-0.14-0.08-0.32-0.21-0.93-0.14c-0.58,0.07-0.77,0.54-0.81,0.89c-0.13,1.18,1.03,1.85,1.09,1.84 c0,0-0.72-0.06-0.9,0.86c-0.1,0.53,0.23,1.09,0.62,1.62c0.39,0.53,1.26,1.19,1.26,1.19s-0.6,0.05-0.73,0.55 c-0.2,0.76,0.37,1.41,1.37,1.99c0,0,1.53,1.06,3.11,1.64c3.66,1.33,6.9,1.31,8.33,1.17c3.65-0.37,31.92-2.68,37.3-4.55 c5.02-1.75,5.13-5.71,5.42-8.97C91.23,102.02,90.89,76.92,88.24,70.96z" fill="url(#arm_2_)"/>
  <g id="tone_4_">
    <path d="M43.36,109.88c0.56-0.01,1.02,0.21,0.54,0.71c-0.26,0.27-2.43-0.14-3.73-0.45 c-1.56-0.37-3.17-1.01-3.94-1.9c-0.26-0.31-0.17-0.29-0.17-0.29c1.21,0.52,2.54,1.14,3.91,1.38 C41.35,109.57,42.8,109.89,43.36,109.88z" fill="#EDA600"/>
    <path d="M43.56,113.85c-0.02,0.49-0.68,0.37-0.94,0.35c-1.73-0.11-3.31-0.68-4.7-1.32 c-2.88-1.32-3.15-2.6-3.15-2.6s2.12,1.35,3.39,1.84c1.27,0.49,2.97,0.95,4.68,1.18C43.05,113.33,43.58,113.36,43.56,113.85z" fill="#EDA600"/>
    <path d="M43.63,116.86c-0.01,0.51-0.69,0.43-1.21,0.38c0,0-1.97-0.35-3.94-1.25 c-2.03-0.93-3.1-2.35-3.1-2.35s2.27,1.24,3.21,1.57c0.84,0.29,2.66,0.8,4.07,1.05C42.89,116.31,43.64,116.41,43.63,116.86z" fill="#EDA600"/>
  </g>
  <g id="arm_x5F_shirt_35_">
    <path d="M77.08,91.31l12.6-0.79c2.55-0.16,4.44-1.03,4.4-3.32l-1.4-14.7c-0.99-6.96-5.19-8.47-11.22-8.09 c-6.03,0.37-9.42,4.94-9.32,10.37l0.45,13.93C72.64,91,74.53,91.47,77.08,91.31z" fill="#ED6D23"/>
  </g>
</svg>

<svg viewBox="0 0 128 128" xmlns="http://www.w3.org/2000/svg">
  <defs>
    <linearGradient id="arm_2_" gradientUnits="userSpaceOnUse" x1="62.5035" x2="62.5035" y1="80.9835" y2="124.6199">
      <stop offset="0" stop-color="#FFB300"/>
      <stop offset="0.5056" stop-color="#FFCA28"/>
    </linearGradient>
    <radialGradient id="SVGID_1_" cx="88.060405" cy="4.995486" gradientTransform="matrix(0.9381 0.3463 -0.4988 1.351 0 0)" gradientUnits="userSpaceOnUse" r="14.1914">
      <stop offset="0.45" stop-color="#6D4C41" stop-opacity="0"/>
      <stop offset="1" stop-color="#6D4C41"/>
    </radialGradient>
    <radialGradient id="SVGID_2_" cx="70.58416" cy="38.857352" gradientTransform="matrix(0.9632 -0.2642 0.3327 1.1275 0 0)" gradientUnits="userSpaceOnUse" r="14.7647">
      <stop offset="0.45" stop-color="#6D4C41" stop-opacity="0"/>
      <stop offset="1" stop-color="#6D4C41"/>
    </radialGradient>
    <radialGradient id="SVGID_3_" cx="56.217799" cy="55.705359" gradientTransform="matrix(0.9565 -0.2919 0.2194 0.7189 0 0)" gradientUnits="userSpaceOnUse" r="27.42">
      <stop offset="0.45" stop-color="#6D4C41" stop-opacity="0"/>
      <stop offset="1" stop-color="#6D4C41"/>
    </radialGradient>
    <radialGradient id="SVGID_4_" cx="88.293502" cy="47.816313" gradientTransform="matrix(0.9943 0.1064 -0.0684 0.6393 0 0)" gradientUnits="userSpaceOnUse" r="15.7121">
      <stop offset="0.45" stop-color="#6D4C41" stop-opacity="0"/>
      <stop offset="1" stop-color="#6D4C41"/>
    </radialGradient>
    <radialGradient id="SVGID_5_" cx="48.9355" cy="97.5801" gradientUnits="userSpaceOnUse" r="45.2448">
      <stop offset="0" stop-color="#F78C1F"/>
      <stop offset="0.482" stop-color="#F47F12"/>
      <stop offset="1" stop-color="#EF6C00"/>
    </radialGradient>
  </defs>
  <path id="head_23_" d="M90.3,33.53 C92.76,23.35 87.03,11.98 78.75,8.52 C72.65,5.99 65.6,6.49 59.49,8.72 C50.05,12 45.98,20.39 46.72,29.51 C47.02,34.21 48.3,36.85 50.04,40.49 C50.85,42.94 46.96,46 47.05,48.69 C47.09,50.69 51.37,50.99 51.76,51.27 C52.19,51.54 52.58,52.4 52.84,53.06 C54.72,57.68 56.35,60.69 64.27,59.67 C66.95,59.24 69.51,58.03 70.04,58.82 C70.47,59.47 70.78,62.11 70.86,62.77 C70.97,63.63 68.14,68.36 68.14,68.36 L88.02,66.08 L89.55,66.39 L89.31,62.78 C89.31,62.78 83.86,53.58 87.39,42.22 C87.86,40.71 89.98,34.7 90.3,33.53 Z" fill="#FFCA28"/>
  <path id="eye_23_" d="M59.41,42.81 C61.18,42.85 58.65,45.08 56.25,45.21 C54.51,45.31 52.46,44.5 53.19,41.87 C53.5,40.75 54.22,42.74 55.74,42.97 C57.27,43.19 59.41,42.81 59.41,42.81 Z" fill="#404040"/>
  <path id="eyebrow_23_" d="M53.59,37.51 C51.51,37.94 51.03,36.93 51.64,35.8 C52.09,34.97 53.69,34.49 56.07,34.96 C58.52,35.44 59.46,36.41 60.11,37.15 C60.76,37.9 60.74,38.68 60.23,38.78 C59.53,38.93 57.11,36.79 53.59,37.51 Z" fill="#6D4C41"/>
  <path id="hair" d="M92.95,26.45 C92.95,26.45 92.94,26.46 92.92,26.48 C95.46,23.14 94.97,17.08 92.07,14.08 C87.97,9.83 83,10.06 82.21,10.05 C78.87,3.88 70.4,2.75 63.44,5.21 C60.6,6.14 57.95,8.22 55.81,10.12 C55.25,10.55 54.7,10.92 54.11,11.19 C54.06,11.21 54,11.24 53.95,11.26 C53.87,11.29 53.8,11.32 53.72,11.34 C50.02,12.39 48.1,10.48 48.23,7.43 C48.23,7.43 40.26,10.46 44.97,17.95 C42.37,19.57 41,22.41 40.91,25.25 C40.78,29.13 43.56,32.56 47.43,33.66 C47.1,32.69 46.14,27.59 55.03,27.13 C58.11,26.98 61.23,25.36 63.47,23.46 C63.66,23.43 63.78,23.41 63.78,23.41 C67.36,24.71 63.68,32.42 68.04,36.48 C68.9,37.28 69.46,36.86 69.46,36.86 L70.63,34.47 C71.54,32.81 72.38,31.38 73.82,31.48 C78.09,31.79 78.4,39.29 73.73,41.62 C73.27,41.85 76.62,50.23 86.79,48.77 C92.05,48.02 93.28,43.39 93.28,43.39 C92.9,43.54 92.06,43.69 91.25,43.41 C91.15,43.37 91.06,43.31 90.97,43.24 C90.72,43.04 90.54,42.78 90.45,42.61 C89.86,41.52 90.63,40.12 92.11,38.32 C96.25,33.41 93.87,27.85 92.95,26.45 Z" fill="#543930"/>
  <path d="M92.95,26.45 C92.95,26.45 92.94,26.46 92.92,26.48 C90.68,29.85 86.81,30.73 85.83,30.93 C85.83,30.93 84.7,31.03 84.11,31.21 C79.83,31.82 78.29,38.27 84.21,43.11 C88.34,46.48 93.29,43.38 93.29,43.38 C93.29,43.38 92.6,43.7 91.48,43.48 C90.76,43.34 90.38,42.47 90.37,42.43 C89.97,41.48 90.69,40.01 92.12,38.32 C96.25,33.41 93.87,27.85 92.95,26.45 Z" fill="url(#SVGID_1_)"/>
  <path d="M92.7,14.83 C89.71,11.14 85.81,10.07 82.21,10.05 C82.77,11.34 82.6,15.93 79.73,19.12 C81.48,20.81 83.68,22.78 84.7,24.95 C85.59,26.84 86.5,28.94 85.83,30.93 C87.11,30.67 93.29,29.27 94.39,22.71 C94.78,20.36 94.31,16.81 92.7,14.83 Z" fill="url(#SVGID_2_)"/>
  <path d="M82.21,14 C82.6,12.3 82.56,10.95 82.13,9.82 C82.13,9.82 81.56,8.83 80.6,7.83 C79.75,6.95 78.58,6.09 77.47,5.5 C72.98,3.09 65.93,3.93 62.01,5.79 C58.85,7.29 57.92,8.5 55.81,10.12 C54.28,11.3 52.8,12.06 50.37,11.38 C48.05,10.73 48.23,7.43 48.23,7.43 C48.23,7.43 40.26,10.46 44.97,17.95 C42.37,19.57 41,22.41 40.91,25.25 C40.78,29.13 43.56,32.56 47.43,33.66 C47.43,33.66 45.69,27.92 53.97,27.17 C56.71,26.92 58.47,26.71 60.85,25.33 C62.96,24.11 64.09,22.24 66.62,22.02 C69.34,21.79 73.15,22.39 75.87,21.57 C81.36,19.89 82.19,14.08 82.21,14 Z" fill="url(#SVGID_3_)"/>
  <path d="M84.2,43.11 C82.11,41.45 80.14,38.05 77.06,36.77 C76.8,38.69 75.72,40.62 73.73,41.62 C73.27,41.85 76.62,50.23 86.79,48.77 C92.05,48.02 93.28,43.39 93.28,43.39 C93.28,43.39 88.4,46.45 84.2,43.11 Z" fill="url(#SVGID_4_)"/>
  <path id="mouth_23_" d="M52.88,53.2 C53.27,53.2 53.66,53.17 54.04,53.1 C54.96,52.97 55.81,52.68 56.46,52.2 C57.9,51.15 59.12,52.09 57.96,53.44 C57.16,54.37 56.16,55 55.06,55.36 C54.69,55.48 54.33,55.58 53.95,55.64 L52.88,53.2 Z" fill="#795548"/>
  <path d="M36.16,124 L93.67,124 C93.67,124 91.38,116.09 92,109.32 C92.95,99.1 96.33,95.88 96.33,79.76 C96.33,68.18 89.99,57.83 81.72,58.17 C71.21,58.61 67.67,63.7 59.9,68.5 C49.39,75 48.3,79.83 49.13,85.39 C49.39,87.17 48.38,87.64 47.05,88.48 C37.87,94.36 31.04,100.45 31.71,113.01 C32.07,119.83 36.16,124 36.16,124 Z" fill="url(#SVGID_5_)"/>
  <path id="arm_1_" d="M88.24,70.96 C85.59,65 75.82,68.16 74.77,75.71 C73.89,82.04 76.74,103.82 76.74,103.82 C76.74,103.82 69.47,107.81 61.13,108.82 C59.14,109.06 55.32,109.25 54.73,108.96 C53.67,108.44 53.28,107.31 52.78,106.65 C52.16,105.84 51.52,105.02 50.7,104.39 C50.08,103.92 49.36,103.57 48.66,103.23 C47.49,102.67 46.31,102.11 45.14,101.54 C44.85,101.4 44.51,101.26 44.22,101.38 C44.07,101.45 43.95,101.58 43.86,101.72 C43.48,102.38 43.82,103.25 44.37,103.78 C44.92,104.31 45.64,104.62 46.26,105.06 C46.88,105.5 47.43,106.19 47.36,106.95 C45.64,107.21 43.1,107.25 41.44,107.04 C39.83,106.83 39.18,106.59 37.99,106.35 C37.38,106.22 36.21,105.84 35.85,106.72 C35.56,107.41 35.93,107.86 36.31,108.21 C36.34,108.24 36.37,108.26 36.4,108.29 C36.24,108.18 36.02,108.04 35.76,107.89 C35.62,107.81 35.44,107.68 34.83,107.75 C34.25,107.82 34.06,108.29 34.02,108.64 C33.89,109.82 35.05,110.49 35.11,110.48 C35.11,110.48 34.39,110.42 34.21,111.34 C34.11,111.87 34.44,112.43 34.83,112.96 C35.22,113.49 36.09,114.15 36.09,114.15 C36.09,114.15 35.49,114.2 35.36,114.7 C35.16,115.46 35.73,116.11 36.73,116.69 C36.73,116.69 38.26,117.75 39.84,118.33 C43.5,119.66 46.74,119.64 48.17,119.5 C51.82,119.13 80.09,116.82 85.47,114.95 C90.49,113.2 90.6,109.24 90.89,105.98 C91.23,102.02 90.89,76.92 88.24,70.96 Z" fill="url(#arm_2_)"/>
  <path d="M43.36,109.88 C43.92,109.87 44.38,110.09 43.9,110.59 C43.64,110.86 41.47,110.45 40.17,110.14 C38.61,109.77 37,109.13 36.23,108.24 C35.97,107.93 36.06,107.95 36.06,107.95 C37.27,108.47 38.6,109.09 39.97,109.33 C41.35,109.57 42.8,109.89 43.36,109.88 Z" fill="#EDA600"/>
  <path d="M43.56,113.85 C43.54,114.34 42.88,114.22 42.62,114.2 C40.89,114.09 39.31,113.52 37.92,112.88 C35.04,111.56 34.77,110.28 34.77,110.28 C34.77,110.28 36.89,111.63 38.16,112.12 C39.43,112.61 41.13,113.07 42.84,113.3 C43.05,113.33 43.58,113.36 43.56,113.85 Z" fill="#EDA600"/>
  <path d="M43.63,116.86 C43.62,117.37 42.94,117.29 42.42,117.24 C42.42,117.24 40.45,116.89 38.48,115.99 C36.45,115.06 35.38,113.64 35.38,113.64 C35.38,113.64 37.65,114.88 38.59,115.21 C39.43,115.5 41.25,116.01 42.66,116.26 C42.89,116.31 43.64,116.41 43.63,116.86 Z" fill="#EDA600"/>
  <path d="M77.08,91.31 L89.68,90.52 C92.23,90.36 94.12,89.49 94.08,87.2 L92.68,72.5 C91.69,65.54 87.49,64.03 81.46,64.41 C75.43,64.78 72.04,69.35 72.14,74.78 L72.59,88.71 C72.64,91 74.53,91.47 77.08,91.31 Z" fill="#ED6D23"/>
</svg>
